src/assets/img/icon/icon6.svg

<svg width="50" height="50" viewBox="0 0 50 50" fill="none" xmlns="http://www.w3.org/2000/svg">
<g clip-path="url(#clip0_1_294)">
<path d="M15.3748 22.2756C17.6645 27.3285 22.5665 29.528 24.9997 29.528C26.5995 29.528 29.2667 28.5763 31.557 26.4887C30.7196 26.5471 29.8246 26.5767 28.8681 26.5767C28.6437 26.5767 28.4083 26.5747 28.1567 26.5707C27.6745 26.942 27.0773 27.1514 26.4575 27.1514H24.4197C22.884 27.1514 21.6347 25.9021 21.6347 24.3664C21.6347 22.8307 22.884 21.5813 24.4197 21.5813H26.4575C27.1937 21.5813 27.8822 21.8683 28.3929 22.3632C28.5626 22.3651 28.7298 22.3659 28.894 22.3659C31.5246 22.3659 33.2583 22.1246 34.3924 21.8336C34.2453 21.4756 34.1651 21.084 34.1651 20.6751V13.6137C34.1651 12.8792 34.4378 12.1751 34.9092 11.6311C34.6576 9.67275 34.201 8.17767 33.5195 7.0748C32.1153 4.80209 29.408 3.74365 24.9997 3.74365C21.3426 3.74365 18.8172 4.50281 17.2794 6.06445C16.0872 7.27505 15.3964 9.00244 15.0735 11.6113C15.5555 12.1573 15.8343 12.8686 15.8343 13.6137V20.6751C15.8344 21.2626 15.6655 21.8109 15.3748 22.2756Z" fill="white"/>
<path d="M10.3645 22.3422H12.809C13.7293 22.3422 14.476 21.5958 14.476 20.6751V13.6138C14.476 12.9987 14.1419 12.4627 13.6463 12.1739C14.1922 6.39182 16.4234 2.38506 24.9999 2.38506C29.9251 2.38506 32.9996 3.64851 34.6755 6.36084C35.6507 7.9392 36.1198 9.97783 36.3389 12.1826C35.8512 12.4735 35.5238 13.0047 35.5238 13.6137V20.675C35.5238 21.4688 36.0791 22.1316 36.8221 22.2997C35.7445 23.0045 33.5135 23.7244 28.8941 23.7244C28.5199 23.7244 28.1299 23.7196 27.7237 23.7099C27.4859 23.2527 27.0088 22.9398 26.4578 22.9398H24.4201C23.6324 22.9398 22.9936 23.5785 22.9936 24.3663C22.9936 25.1541 23.6324 25.7928 24.4201 25.7928H26.4578C26.9338 25.7928 27.3544 25.5587 27.6134 25.2005C28.0424 25.2113 28.4625 25.2181 28.8684 25.2181C34.0754 25.218 37.3855 24.3292 38.7261 22.5658C38.7832 22.4908 38.8352 22.4161 38.8826 22.3422H39.6357C40.5561 22.3422 41.3026 21.5958 41.3026 20.6751V13.6138C41.3026 12.6933 40.5562 11.9469 39.6357 11.9469H38.7162C38.4575 9.28307 37.8841 7.01539 36.7046 5.1069C34.5815 1.67047 30.7526 0 24.9998 0C19.2466 0 15.4181 1.67047 13.2949 5.10704C12.1155 7.01552 11.5423 9.28293 11.2835 11.947H10.3643C9.44365 11.947 8.69727 12.6933 8.69727 13.614V20.6753C8.69727 21.5958 9.44379 22.3422 10.3645 22.3422Z" fill="white"/>
<path d="M45.1536 43.1066C44.5993 39.6604 43.4582 35.2212 41.1698 33.6439C39.6093 32.5678 34.1616 29.6571 31.8353 28.4143L31.7864 28.3883C31.5202 28.246 31.1953 28.2746 30.958 28.4608C29.7376 29.4187 28.4016 30.064 26.9872 30.3788C26.7373 30.4344 26.532 30.6122 26.4411 30.8516L24.9998 34.6502L23.5585 30.8516C23.4677 30.6121 23.2624 30.4344 23.0124 30.3788C21.598 30.064 20.2618 29.4187 19.0412 28.4608C18.804 28.2744 18.4791 28.2459 18.2129 28.3883C15.9127 29.6172 10.3944 32.589 8.8364 33.6393C6.20096 35.4148 5.05 41.8373 4.84609 43.1067C4.82584 43.2327 4.83753 43.3615 4.88005 43.4816C4.97433 43.7478 7.39173 50.0003 24.9997 50.0003C42.6074 50.0003 45.025 43.7478 45.1194 43.4817C45.1621 43.3613 45.1738 43.2324 45.1536 43.1066ZM36.955 39.1492H29.9811V37.6804H36.955V39.1492Z" fill="white"/>
</g>
<defs>
<clipPath id="clip0_1_294">
<rect width="50" height="50" fill="white"/>
</clipPath>
</defs>
</svg>

<svg xmlns="http://www.w3.org/2000/svg" width="50" height="50" fill="none" xmlns:v="https://vecta.io/nano"><g clip-path="url(#A)" fill="#fff"><path d="M15.375 22.276c2.29 5.053 7.192 7.252 9.625 7.252 1.6 0 4.267-.952 6.557-3.039a38.72 38.72 0 0 1-2.689.088 44.71 44.71 0 0 1-.711-.006 2.79 2.79 0 0 1-1.699.581H24.42a2.79 2.79 0 0 1-2.785-2.785 2.79 2.79 0 0 1 2.785-2.785h2.038c.736 0 1.425.287 1.935.782l.501.003c2.631 0 4.364-.241 5.498-.532a3.04 3.04 0 0 1-.227-1.158v-7.061a3.04 3.04 0 0 1 .744-1.983c-.252-1.958-.708-3.453-1.39-4.556-1.404-2.273-4.111-3.331-8.52-3.331-3.657 0-6.183.759-7.72 2.321-1.192 1.211-1.883 2.938-2.206 5.547a3.03 3.03 0 0 1 .761 2.002v7.061a3.01 3.01 0 0 1-.46 1.601zm-5.01.066h2.444a1.67 1.67 0 0 0 1.667-1.667v-7.061c0-.615-.334-1.151-.83-1.44.546-5.782 2.777-9.789 11.354-9.789 4.925 0 8 1.263 9.676 3.976.975 1.578 1.444 3.617 1.663 5.822-.488.291-.815.822-.815 1.431v7.061c0 .794.555 1.457 1.298 1.625-1.078.705-3.309 1.425-7.928 1.425a49.07 49.07 0 0 1-1.17-.014c-.238-.457-.715-.77-1.266-.77H24.42c-.788 0-1.427.639-1.427 1.426a1.43 1.43 0 0 0 1.427 1.427h2.038c.476 0 .897-.234 1.156-.592l1.255.018c5.207 0 8.517-.889 9.858-2.652.057-.075.109-.15.156-.224h.753a1.67 1.67 0 0 0 1.667-1.667v-7.061a1.67 1.67 0 0 0-1.667-1.667h-.919c-.259-2.664-.832-4.932-2.012-6.84C34.582 1.67 30.753 0 25 0s-9.582 1.67-11.705 5.107c-1.179 1.908-1.753 4.176-2.011 6.84h-.919c-.921 0-1.667.746-1.667 1.667v7.061a1.67 1.67 0 0 0 1.667 1.667zm34.789 20.765c-.554-3.446-1.695-7.885-3.984-9.463-1.561-1.076-7.008-3.987-9.335-5.23l-.049-.026a.76.76 0 0 0-.828.072c-1.22.958-2.556 1.603-3.971 1.918a.76.76 0 0 0-.546.473L25 34.65l-1.441-3.799a.76.76 0 0 0-.546-.473c-1.414-.315-2.751-.96-3.971-1.918a.76.76 0 0 0-.828-.072c-2.3 1.229-7.819 4.201-9.377 5.251-2.635 1.776-3.786 8.198-3.99 9.467a.76.76 0 0 0 .034.375C4.974 43.748 7.392 50 25 50s20.025-6.253 20.12-6.519a.76.76 0 0 0 .034-.375zm-8.199-3.957h-6.974v-1.47h6.974v1.469z"/></g><defs><clipPath id="A"><path fill="#fff" d="M0 0h50v50H0z"/></clipPath></defs></svg>
